src/lib/runemarks/svg/weapons-spear.svg

<svg xmlns="http://www.w3.org/2000/svg" width="300" height="300" viewBox="0 0 300 300"><title>weapons-spear</title><path d="M46.969 298.012c-.806-1.2-1.003-2.297-.6-3.3 0-.6.403-1.5 1.2-2.7l.3-.3c1.406-2.4 3.806-5.906 7.209-10.509 2.203-2.794 3.806-4.903 4.809-6.309l1.2-1.5c4.406-5.813 7.613-10.209 9.609-13.209 3.403-5.006 5.962-9.666 7.659-13.969s4.856-9.862 9.459-16.669l3.3-4.809c2.194-2.794 4.406-7.603 6.609-14.419l3-9.009c1.2-3.206 1.303-6.309.3-9.309s-2.906-5.409-5.709-7.209a22 22 0 0 0-3-1.5c-1.997-1.2-3.094-2.297-3.3-3.3s.197-2.4 1.2-4.2c1.8-3.806 3.094-6.113 3.9-6.909 1.2-1.2 2.503-1.697 3.9-1.5 1.2.403 3.703 1.5 7.509 3.3 4.809 2.203 8.409 4.406 10.809 6.609l-.9 1.5c-.797.797-1.2 1.603-1.2 2.4s.403 1.453 1.2 1.95c.806.497 1.453.703 1.95.6s1.05-.553 1.65-1.35l.6-.6c2.803-3.403 6-8.916 9.609-16.519 1.8-3.609 3.253-6.356 4.35-8.259s2.653-4.959 4.659-9.159l2.4-5.409q2.095-3.896.9-6.609-.604-.9-.9-3.15c-.296-2.25-.497-2.55-.9-3.15-.403-1.003-1.2-1.706-2.4-2.1-3.609-1.397-7.912-1.603-12.909-.6-3.6 1.2-6.909 1.997-9.909 2.4-1.406.197-2.503.197-3.3 0s-1.453-.703-1.95-1.5-.6-1.697-.3-2.7.853-1.8 1.65-2.4l7.209-7.209c5.606-5.812 9.909-9.909 12.909-12.309 2.203-1.594 5.306-4.2 9.309-7.809l4.2-3.9c2.803-2.4 6.9-5.906 12.309-10.509q9.914-8.409 14.569-12.909c4.655-4.5 7.762-7.106 13.969-12.309s10.716-9.206 13.519-12.009c7.603-7.603 19.116-16.809 34.538-27.628 2.597-1.8 6.403-4.903 11.409-9.309l2.7-2.4c1.003-1.406 2.1-2.4 3.3-3 .197-.6.553-1.003 1.05-1.2s1.05-.103 1.65.3.703 1.097.3 2.1c-.197 4.209-1.303 10.416-3.3 18.619l-9.609 39.337c-3.206 13.613-5.906 23.719-8.109 30.328-.6 1.603-1.35 4.153-2.25 7.659s-1.753 6.159-2.55 7.959c-1.406 4.003-3.206 10.116-5.409 18.319s-4.116 14.316-5.709 18.319c-3.403 8.409-5.906 17.812-7.509 28.228-.197 1.603-.806 4.106-1.8 7.509-.797 2.794-1.303 4.856-1.5 6.159s-.6 2.053-1.2 2.25-1.397-.206-2.4-1.2c-4.809-4.406-7.809-8.606-9.009-12.609-.806-2.597-2.606-6.103-5.409-10.509l-.6-1.2c-1.406-3.206-3.703-3.909-6.909-2.1l-3.9 2.4c-5.606 3.403-9.966 6.112-13.059 8.109s-5.156 4.406-6.159 7.209q-.9 3.6-4.5 10.209c-1.003 1.603-1.35 3-1.05 4.2s1.256 2.4 2.85 3.6c10.416 6.806 18.216 12.009 23.428 15.619 1.603 1.2 2.4 2.147 2.4 2.85s-.703 1.547-2.1 2.55c-1.997 1.2-4.303 3.506-6.909 6.909-1.397 1.8-2.494 3.094-3.3 3.9-1.397.197-2.1-.103-2.1-.9-2.597-7.809-8.006-11.006-16.219-9.609-4.603.797-9.909 2.606-15.919 5.409-4.8 2.4-8.409 5.7-10.809 9.909-1.603 2.4-4.003 5.803-7.209 10.209-3 3.609-5.109 6.412-6.309 8.409l-1.8 3c-5.203 8.203-9.009 14.316-11.409 18.319-4.003 7.003-7.209 13.509-9.609 19.519-.6 1.603-1.397 2.897-2.4 3.9-1.8 1.997-3.45 2.85-4.959 2.55s-3.056-1.65-4.659-4.05l-1.2-1.5c0-.197-.103-.3-.3-.3l-.6-.3c-1.2.6-2.7 1.894-4.509 3.9-1.003 1.2-1.8 2.006-2.4 2.4l-.9.9c-.6.6-1.097.947-1.5 1.05s-.853-.047-1.35-.45c-.506-.403-.703-.9-.6-1.5s.347-1.397.75-2.4v-.3c1.003-2.203 1.35-3.9 1.05-5.109s-1.247-2.409-2.85-3.6c-1.997-1.8-3.703-1.65-5.109.45s-2.353 3.75-2.85 4.959a13.1 13.1 0 0 1-1.95 3.3c-.6.6-1.603 1.397-3 2.4zm118.022-167.868v6.609c0 .797.253 1.35.75 1.65s1.153.347 1.95.15 2.147-.75 4.05-1.65 3.347-1.556 4.35-1.95c3.806-1.2 6.216-3.797 7.209-7.809.6-2.597 2.1-6.403 4.5-11.409l1.2-2.4 1.2-3c1.603-3.806 2.597-6.712 3-8.709 1.2-4.2 2.803-7.809 4.809-10.809l4.5-7.509c4.003-7.003 7.313-12.009 9.909-15.019 1.003-.6 1.706-1.903 2.1-3.9.797-1.603.6-2.803-.6-3.6-.6-.197-1.153-.15-1.65.15s-.853.647-1.05 1.05l-3.3 3.6c-5.409 5.409-9.206 9.712-11.409 12.909-7.003 9.609-16.716 21.628-29.128 36.037-1.397 1.8-2.203 3.094-2.4 3.9q-.9 2.404 0 4.809.295 1.8 0 4.809v2.1zm-44.438 69.665c0 1.997.656 3.75 1.95 5.259s2.644 2.062 4.05 1.65q5.413-1.505 6.609-5.709 1.8-4.809-1.8-8.409-.9-.9-1.8-1.35c-.9-.45-1.397-.356-2.4-.15q-2.404.9-4.5 3.6c-2.096 2.7-2.1 3.506-2.1 5.109zM174 213.628c0-1.2-.356-1.8-1.05-1.8s-1.05.497-1.05 1.5c0 .403.103.797.3 1.2s.497.497.9.3zm-45.047-33.037v-.3h-.6c-.197.197-.3.356-.3.45s.197.15.6.15c-.197-.197-.103-.3.3-.3"/></svg>

<?xml version="1.0" encoding="UTF-8" standalone="no"?>
<!DOCTYPE svg PUBLIC "-//W3C//DTD SVG 1.1//EN" "http://www.w3.org/Graphics/SVG/1.1/DTD/svg11.dtd">
<svg width="100%" height="100%" viewBox="0 0 300 300" version="1.1" xmlns="http://www.w3.org/2000/svg" xmlns:xlink="http://www.w3.org/1999/xlink" xml:space="preserve" xmlns:serif="http://www.serif.com/" style="fill-rule:evenodd;clip-rule:evenodd;stroke-linejoin:round;stroke-miterlimit:2;">
    <path d="M46.969,298.012C46.163,296.812 45.966,295.715 46.369,294.712C46.369,294.112 46.772,293.212 47.569,292.012L47.869,291.712C49.275,289.312 51.675,285.806 55.078,281.203C57.281,278.409 58.884,276.3 59.887,274.894L61.087,273.394C65.493,267.581 68.7,263.185 70.696,260.185C74.099,255.179 76.658,250.519 78.355,246.216C80.052,241.913 83.211,236.354 87.814,229.547L91.114,224.738C93.308,221.944 95.52,217.135 97.723,210.319L100.723,201.31C101.923,198.104 102.026,195.001 101.023,192.001C100.02,189.001 98.117,186.592 95.314,184.792C94.354,184.216 93.351,183.715 92.314,183.292C90.317,182.092 89.22,180.995 89.014,179.992C88.808,178.989 89.211,177.592 90.214,175.792C92.014,171.986 93.308,169.679 94.114,168.883C95.314,167.683 96.617,167.186 98.014,167.383C99.214,167.786 101.717,168.883 105.523,170.683C110.332,172.886 113.932,175.089 116.332,177.292L115.432,178.792C114.635,179.589 114.232,180.395 114.232,181.192C114.232,181.989 114.635,182.645 115.432,183.142C116.238,183.639 116.885,183.845 117.382,183.742C117.879,183.639 118.432,183.189 119.032,182.392L119.632,181.792C122.435,178.389 125.632,172.876 129.241,165.273C131.041,161.664 132.494,158.917 133.591,157.014C134.688,155.111 136.244,152.055 138.25,147.855L140.65,142.446C142.047,139.849 142.347,137.646 141.55,135.837C141.147,135.237 140.847,134.187 140.65,132.687C140.354,130.437 140.153,130.137 139.75,129.537C139.347,128.534 138.55,127.831 137.35,127.437C133.741,126.04 129.438,125.834 124.441,126.837C120.841,128.037 117.532,128.834 114.532,129.237C113.126,129.434 112.029,129.434 111.232,129.237C110.435,129.04 109.779,128.534 109.282,127.737C108.785,126.94 108.682,126.04 108.982,125.037C109.282,124.034 109.835,123.237 110.632,122.637L117.841,115.428C123.447,109.616 127.75,105.519 130.75,103.119C132.953,101.525 136.056,98.919 140.059,95.31L144.259,91.41C147.062,89.01 151.159,85.504 156.568,80.901C163.177,75.295 168.034,70.992 171.137,67.992C175.792,63.492 178.899,60.886 185.106,55.683C191.313,50.48 195.822,46.477 198.625,43.674C206.228,36.071 217.741,26.865 233.163,16.046C235.76,14.246 239.566,11.143 244.572,6.737L247.272,4.337C248.275,2.931 249.372,1.937 250.572,1.337C250.769,0.737 251.125,0.334 251.622,0.137C252.119,-0.06 252.672,0.034 253.272,0.437C253.872,0.84 253.975,1.534 253.572,2.537C253.375,6.746 252.269,12.953 250.272,21.156L240.663,60.493C237.457,74.106 234.757,84.212 232.554,90.821C231.954,92.424 231.204,94.974 230.304,98.48C229.404,101.986 228.551,104.639 227.754,106.439C226.348,110.442 224.548,116.555 222.345,124.758C220.142,132.961 218.229,139.074 216.636,143.077C213.233,151.486 210.73,160.889 209.127,171.305C208.93,172.908 208.321,175.411 207.327,178.814C206.53,181.608 206.024,183.67 205.827,184.973C205.63,186.276 205.227,187.026 204.627,187.223C204.027,187.42 203.23,187.017 202.227,186.023C197.418,181.617 194.418,177.417 193.218,173.414C192.412,170.817 190.612,167.311 187.809,162.905L187.209,161.705C185.803,158.499 183.506,157.796 180.3,159.605L176.4,162.005C170.794,165.408 166.434,168.117 163.341,170.114C160.248,172.111 158.185,174.52 157.182,177.323C156.582,179.723 155.082,183.126 152.682,187.532C151.679,189.135 151.332,190.532 151.632,191.732C151.932,192.932 152.888,194.132 154.482,195.332C164.898,202.138 172.698,207.341 177.91,210.951C179.513,212.151 180.31,213.098 180.31,213.801C180.31,214.504 179.607,215.348 178.21,216.351C176.213,217.551 173.907,219.857 171.301,223.26C169.904,225.06 168.807,226.354 168.001,227.16C166.604,227.357 165.901,227.057 165.901,226.26C163.304,218.451 157.895,215.254 149.682,216.651C145.079,217.448 139.773,219.257 133.763,222.06C128.963,224.46 125.354,227.76 122.954,231.969C121.351,234.369 118.951,237.772 115.745,242.178C112.745,245.787 110.636,248.59 109.436,250.587L107.636,253.587C102.433,261.79 98.627,267.903 96.227,271.906C92.224,278.909 89.018,285.415 86.618,291.425C86.018,293.028 85.221,294.322 84.218,295.325C82.418,297.322 80.768,298.175 79.259,297.875C77.75,297.575 76.203,296.225 74.6,293.825L73.4,292.325C73.4,292.128 73.297,292.025 73.1,292.025L72.5,291.725C71.3,292.325 69.8,293.619 67.991,295.625C66.988,296.825 66.191,297.631 65.591,298.025L64.691,298.925C64.091,299.525 63.594,299.872 63.191,299.975C62.788,300.078 62.338,299.928 61.841,299.525C61.335,299.122 61.138,298.625 61.241,298.025C61.344,297.425 61.588,296.628 61.991,295.625L61.991,295.325C62.994,293.122 63.341,291.425 63.041,290.216C62.741,289.007 61.794,287.807 60.191,286.616C58.194,284.816 56.488,284.966 55.082,287.066C53.676,289.166 52.729,290.816 52.232,292.025C51.747,293.215 51.09,294.327 50.282,295.325C49.682,295.925 48.679,296.722 47.282,297.725L46.969,298.012ZM164.991,130.144L164.991,136.753C164.991,137.55 165.244,138.103 165.741,138.403C166.238,138.703 166.894,138.75 167.691,138.553C168.488,138.356 169.838,137.803 171.741,136.903C173.644,136.003 175.088,135.347 176.091,134.953C179.897,133.753 182.307,131.156 183.3,127.144C183.9,124.547 185.4,120.741 187.8,115.735L189,113.335L190.2,110.335C191.803,106.529 192.797,103.623 193.2,101.626C194.4,97.426 196.003,93.817 198.009,90.817L202.509,83.308C206.512,76.305 209.822,71.299 212.418,68.289C213.421,67.689 214.124,66.386 214.518,64.389C215.315,62.786 215.118,61.586 213.918,60.789C213.318,60.592 212.765,60.639 212.268,60.939C211.771,61.239 211.415,61.586 211.218,61.989L207.918,65.589C202.509,70.998 198.712,75.301 196.509,78.498C189.506,88.107 179.793,100.126 167.381,114.535C165.984,116.335 165.178,117.629 164.981,118.435C164.381,120.038 164.381,121.641 164.981,123.244C165.178,124.444 165.178,126.047 164.981,128.053L164.981,130.153L164.991,130.144ZM120.553,199.809C120.553,201.806 121.209,203.559 122.503,205.068C123.797,206.577 125.147,207.13 126.553,206.718C130.162,205.715 132.365,203.812 133.162,201.009C134.362,197.803 133.762,195 131.362,192.6C130.762,192 130.162,191.55 129.562,191.25C128.662,190.8 128.165,190.894 127.162,191.1C125.559,191.7 124.059,192.9 122.662,194.7C120.566,197.4 120.562,198.206 120.562,199.809L120.553,199.809Z" style="fill-rule:nonzero;"/>
</svg>
